build/img/svg/animations/varenyki/checking.svg

<svg id="lupa" xmlns="http://www.w3.org/2000/svg" viewBox="0 0 316.5 201"><style>.st0{fill:#519E38;} .st1{fill:#F2D291;} .st2{fill:#DDB97A;} .st3{fill:#0E3656;} .st4{fill:#446666;} .st5{fill:#FFFFFF;}</style><path class="st0" d="M207.7 72.4s2.6-15.8-19.4-27.1-48.2-3-52.2 12.2 18.2 32.4 35 33.1 30.9-.1 36.6-18.2z"/><path class="st1" d="M206.4 63.8S209 48 187 36.7s-48.2-3-52.2 12.2 18.2 32.4 35 33.1 30.9-.1 36.6-18.2z"/><circle class="st2" cx="151" cy="46.4" r="4"/><circle class="st2" cx="174.6" cy="73.9" r="4"/><circle class="st2" cx="160.4" cy="44.4" r="2.3"/><circle class="st2" cx="149.9" cy="58.5" r="2.3"/><circle class="st2" cx="190.1" cy="50.2" r="2.3"/><circle class="st2" cx="183.2" cy="66.3" r="2.3"/><circle class="st2" cx="194" cy="69.9" r="4.2"/><g><path class="st0" d="M201.9 136.9s1.2-15.9-21.7-25.4-48.3 1.1-50.9 16.6 20.9 30.7 37.7 30c16.7-.8 30.8-2.7 34.9-21.2z"/><path class="st1" d="M199.9 128.4s1.2-15.9-21.7-25.4-48.3 1.1-50.9 16.6c-2.7 15.5 20.9 30.7 37.7 30 16.7-.8 30.7-2.7 34.9-21.2z"/><circle class="st2" cx="143.2" cy="115.8" r="4"/><circle class="st2" cx="169.1" cy="141.2" r="4"/><circle class="st2" cx="152.3" cy="113" r="2.3"/><circle class="st2" cx="143.1" cy="127.9" r="2.3"/><circle class="st2" cx="182.4" cy="116.3" r="2.3"/><circle class="st2" cx="176.9" cy="132.9" r="2.3"/><circle class="st2" cx="188" cy="135.6" r="4.2"/></g><g><path class="st0" d="M131.1 74.5s-4.9-15.2-29.7-15.3-44.2 19.3-40.8 34.7 31 20.5 46.2 13.5c15.3-7.1 27.5-14.2 24.3-32.9z"/><path class="st1" d="M126 67.4s-4.9-15.2-29.7-15.3-44.2 19.3-40.8 34.7 31 20.5 46.2 13.5c15.3-7.1 27.5-14.2 24.3-32.9z"/><circle class="st2" cx="68.8" cy="77.2" r="4"/><circle class="st2" cx="102.4" cy="90.9" r="4"/><circle class="st2" cx="76.2" cy="71.2" r="2.3"/><circle class="st2" cx="73.4" cy="88.5" r="2.3"/><circle class="st2" cx="105.3" cy="62.8" r="2.3"/><circle class="st2" cx="106.5" cy="80.3" r="2.3"/><circle class="st2" cx="117.8" cy="78.5" r="4.2"/></g><g><path class="st3" d="M235 85.6c-12.8-12.8-33.7-12.8-46.5 0-12.8 12.8-12.8 33.7 0 46.5 12.8 12.8 33.7 12.8 46.5 0 12.8-12.8 12.8-33.6 0-46.5zm-5.8 40.7c-4.7 4.7-10.9 7.2-17.4 7.2-6.6 0-12.8-2.6-17.4-7.2-4.7-4.7-7.2-10.9-7.2-17.4 0-6.6 2.6-12.8 7.2-17.4 4.7-4.7 10.9-7.2 17.4-7.2 6.6 0 12.8 2.6 17.4 7.2 4.7 4.7 7.2 10.9 7.2 17.4 0 6.6-2.6 12.7-7.2 17.4z"/><path class="st4" d="M232.07 135.023l5.797-5.8 23.263 23.265-5.798 5.798z"/><path class="st3" d="M236.943 145.75l11.597-11.595 31.04 31.042-11.595 11.596z"/><path class="st5" d="M204.9 121.5c-1.6 1.6-4.2 1.6-5.8 0-3.4-3.4-5.2-7.8-5.2-12.6s1.9-9.2 5.2-12.6c1.6-1.6 4.2-1.6 5.8 0 1.6 1.6 1.6 4.2 0 5.8-1.8 1.8-2.8 4.2-2.8 6.8 0 2.6 1 5 2.8 6.8 1.6 1.6 1.6 4.2 0 5.8z"/></g></svg>

<?xml version="1.0" encoding="utf-8"?>
<!-- Generator: Adobe Illustrator 19.0.0, SVG Export Plug-In . SVG Version: 6.00 Build 0)  -->
<svg version="1.1" id="lupa" xmlns="http://www.w3.org/2000/svg" xmlns:xlink="http://www.w3.org/1999/xlink" x="0px" y="0px"
	 viewBox="0 0 316.5 201" style="enable-background:new 0 0 316.5 201;" xml:space="preserve">
<style type="text/css">
	.st0{fill:#519E38;}
	.st1{fill:#F2D291;}
	.st2{fill:#DDB97A;}
	.st3{fill:#0E3656;}
	.st4{fill:#446666;}
	.st5{fill:#FFFFFF;}
</style>
<g>
	<path class="st0" d="M207.7,72.4c0,0,2.6-15.8-19.4-27.1s-48.2-3-52.2,12.2c-4,15.2,18.2,32.4,35,33.1S202,90.5,207.7,72.4z"/>
	<path class="st1" d="M206.4,63.8c0,0,2.6-15.8-19.4-27.1s-48.2-3-52.2,12.2s18.2,32.4,35,33.1S200.7,81.9,206.4,63.8z"/>
	<circle class="st2" cx="151" cy="46.4" r="4"/>
	<circle class="st2" cx="174.6" cy="73.9" r="4"/>
	<circle class="st2" cx="160.4" cy="44.4" r="2.3"/>
	<circle class="st2" cx="149.9" cy="58.5" r="2.3"/>
	<circle class="st2" cx="190.1" cy="50.2" r="2.3"/>
	<circle class="st2" cx="183.2" cy="66.3" r="2.3"/>
	<circle class="st2" cx="194" cy="69.9" r="4.2"/>
</g>
<g>
	<path class="st0" d="M201.9,136.9c0,0,1.2-15.9-21.7-25.4s-48.3,1.1-50.9,16.6s20.9,30.7,37.7,30
		C183.7,157.3,197.8,155.4,201.9,136.9z"/>
	<path class="st1" d="M199.9,128.4c0,0,1.2-15.9-21.7-25.4s-48.3,1.1-50.9,16.6c-2.7,15.5,20.9,30.7,37.7,30
		C181.7,148.8,195.7,146.9,199.9,128.4z"/>
	<circle class="st2" cx="143.2" cy="115.8" r="4"/>
	<circle class="st2" cx="169.1" cy="141.2" r="4"/>
	<circle class="st2" cx="152.3" cy="113" r="2.3"/>
	<circle class="st2" cx="143.1" cy="127.9" r="2.3"/>
	<circle class="st2" cx="182.4" cy="116.3" r="2.3"/>
	<circle class="st2" cx="176.9" cy="132.9" r="2.3"/>
	<circle class="st2" cx="188" cy="135.6" r="4.2"/>
</g>
<g>
	<path class="st0" d="M131.1,74.5c0,0-4.9-15.2-29.7-15.3S57.2,78.5,60.6,93.9s31,20.5,46.2,13.5C122.1,100.3,134.3,93.2,131.1,74.5
		z"/>
	<path class="st1" d="M126,67.4c0,0-4.9-15.2-29.7-15.3S52.1,71.4,55.5,86.8s31,20.5,46.2,13.5C117,93.2,129.2,86.1,126,67.4z"/>
	<circle class="st2" cx="68.8" cy="77.2" r="4"/>
	<circle class="st2" cx="102.4" cy="90.9" r="4"/>
	<circle class="st2" cx="76.2" cy="71.2" r="2.3"/>
	<circle class="st2" cx="73.4" cy="88.5" r="2.3"/>
	<circle class="st2" cx="105.3" cy="62.8" r="2.3"/>
	<circle class="st2" cx="106.5" cy="80.3" r="2.3"/>
	<circle class="st2" cx="117.8" cy="78.5" r="4.2"/>
</g>
<g>
	<path class="st3" d="M235,85.6c-12.8-12.8-33.7-12.8-46.5,0c-12.8,12.8-12.8,33.7,0,46.5c12.8,12.8,33.7,12.8,46.5,0
		C247.8,119.3,247.8,98.5,235,85.6z M229.2,126.3c-4.7,4.7-10.9,7.2-17.4,7.2c-6.6,0-12.8-2.6-17.4-7.2c-4.7-4.7-7.2-10.9-7.2-17.4
		c0-6.6,2.6-12.8,7.2-17.4c4.7-4.7,10.9-7.2,17.4-7.2c6.6,0,12.8,2.6,17.4,7.2c4.7,4.7,7.2,10.9,7.2,17.4
		C236.4,115.5,233.8,121.6,229.2,126.3z"/>
	<g>
		<g>
			<g>
				<g>
					
						<rect x="242.5" y="127.3" transform="matrix(0.7071 -0.7071 0.7071 0.7071 -29.417 216.4806)" class="st4" width="8.2" height="32.9"/>
				</g>
			</g>
		</g>
	</g>
	<g>
		<g>
			<g>
				<g>
					
						<rect x="250" y="133.5" transform="matrix(0.7071 -0.7071 0.7071 0.7071 -34.2295 228.1286)" class="st3" width="16.4" height="43.9"/>
				</g>
			</g>
		</g>
	</g>
	<g>
		<g>
			<g>
				<g>
					<g>
						<path class="st5" d="M204.9,121.5c-1.6,1.6-4.2,1.6-5.8,0c-3.4-3.4-5.2-7.8-5.2-12.6c0-4.8,1.9-9.2,5.2-12.6
							c1.6-1.6,4.2-1.6,5.8,0c1.6,1.6,1.6,4.2,0,5.8c-1.8,1.8-2.8,4.2-2.8,6.8c0,2.6,1,5,2.8,6.8
							C206.5,117.3,206.5,119.9,204.9,121.5z"/>
					</g>
				</g>
			</g>
		</g>
	</g>
</g>
</svg>
